22x22/places/folder-cyan-gitlab.svg

<svg xmlns="http://www.w3.org/2000/svg" width="22" height="22" version="1">
 <rect style="opacity:0.2" width="20" height="12" x="1" y="8.5" rx="1" ry="1"/>
 <path style="fill:#0badff" d="M 1,16 C 1,16.554 1.446,17 2,17 H 20 C 20.554,17 21,16.554 21,16 V 5 C 21,4.446 20.554,4 20,4 H 11 C 9.5,4 9,2 7.5,2 H 2 C 1.446,2 1,2.446 1,3"/>
 <rect style="opacity:0.2" width="20" height="12" x="1" y="7.5" rx="1" ry="1"/>
 <rect style="fill:#f4f4f7" width="16" height="8" x="3" y="6" rx="1" ry="1"/>
 <rect style="fill:#00bcd4" width="20" height="12" x="1" y="8" rx="1" ry="1"/>
 <path style="opacity:0.1;fill:#f4f4f7" d="M 2,2 C 1.446,2 1,2.446 1,3 V 3.5 C 1,2.946 1.446,2.5 2,2.5 H 7.5 C 9,2.5 9.5,4.5 11,4.5 H 20 C 20.554,4.5 21,4.946 21,5.5 V 5 C 21,4.446 20.554,4 20,4 H 11 C 9.5,4 9,2 7.5,2 Z"/>
 <path style="fill:#00caff;fill-rule:evenodd" d="m 8.4948225,10.000069 c -0.0611,0 -0.122271,0.0333 -0.145087,0.10002 L 7.4624715,13 H 9.527174 L 8.6399105,10.100089 c -0.02283,-0.06672 -0.08399,-0.10002 -0.145088,-0.10002 z M 9.527174,13 l 1.472822,4 1.472822,-4 z m 2.945644,0 h 2.064704 l -0.887265,-2.899911 c -0.04563,-0.133452 -0.24452,-0.133452 -0.290174,0 z m 2.064704,0 -3.537526,4 3.874203,-2.673905 c 0.1069,-0.07375 0.151685,-0.204444 0.110861,-0.323804 z m -3.537526,4 -3.5375245,-4 -0.447539,1.002291 c -0.04082,0.11936 0.004,0.250052 0.110862,0.323804 z"/>
</svg>

<svg xmlns="http://www.w3.org/2000/svg" width="22" height="22" version="1"><rect style="opacity:.2" width="20" height="12" x="1" y="8.5" rx="1" ry="1"/><path style="fill:#0badff" d="M1 16c0 .554.446 1 1 1h18c.554 0 1-.446 1-1V5c0-.554-.446-1-1-1h-9C9.5 4 9 2 7.5 2H2c-.554 0-1 .446-1 1"/><rect style="opacity:.2" width="20" height="12" x="1" y="7.5" rx="1" ry="1"/><rect style="fill:#f4f4f7" width="16" height="8" x="3" y="6" rx="1" ry="1"/><rect style="fill:#00bcd4" width="20" height="12" x="1" y="8" rx="1" ry="1"/><path style="opacity:.1;fill:#f4f4f7" d="M2 2c-.554 0-1 .446-1 1v.5c0-.554.446-1 1-1h5.5c1.5 0 2 2 3.5 2h9c.554 0 1 .446 1 1V5c0-.554-.446-1-1-1h-9C9.5 4 9 2 7.5 2z"/><path style="fill:#00caff;fill-rule:evenodd" d="M8.495 10a.15.15 0 0 0-.145.1L7.462 13h2.065l-.887-2.9a.15.15 0 0 0-.145-.1zm1.032 3L11 17l1.473-4zm2.946 0h2.065l-.888-2.9c-.045-.133-.244-.133-.29 0zm2.065 0L11 17l3.874-2.674a.282.282 0 0 0 .111-.324zM11 17l-3.538-4-.447 1.002c-.04.12.004.25.11.324z"/></svg>
